X: 692
T: Zhengzhu daojuanlian
L: 1/8
M: 2/4
K: A
B B c A [I:setbarnb 1]| 
B4 | 
c> B A B | 
A FE2 | 
A A B A | 
FA2C | 
B,4 | 
F> F F F | 
A C E F | 
A A B A | 
FA2C | 
B,4 |]

@@@ Tune index: 9566
